icons/arrow-box-in-top-left.svg

<svg xmlns="http://www.w3.org/2000/svg" width="24" height="24" viewBox="0 0 24 24">
  <path d="M19,2 C20.5976809,2 21.9036609,3.24891996 21.9949073,4.82372721 L22,5 L22,16 C22,16.5522847 21.5522847,17 21,17 C20.4871642,17 20.0644928,16.6139598 20.0067277,16.1166211 L20,16 L20,5 C20,4.48716416 19.6139598,4.06449284 19.1166211,4.00672773 L19,4 L5,4 C4.48716416,4 4.06449284,4.38604019 4.00672773,4.88337887 L4,5 L4,19 C4,19.5128358 4.38604019,19.9355072 4.88337887,19.9932723 L5,20 L15,20 C15.5522847,20 16,20.4477153 16,21 C16,21.5128358 15.6139598,21.9355072 15.1166211,21.9932723 L15,22 L5,22 C3.40231912,22 2.09633912,20.75108 2.00509269,19.1762728 L2,19 L2,5 C2,3.40231912 3.24891996,2.09633912 4.82372721,2.00509269 L5,2 L19,2 Z M9,8 L17,8 C17.5522847,8 18,8.44771525 18,9 C18,9.51283584 17.6139598,9.93550716 17.1166211,9.99327227 L17,10 L11.414,9.999 L18.7071068,17.2928932 C19.0976311,17.6834175 19.0976311,18.3165825 18.7071068,18.7071068 C18.3466228,19.0675907 17.7793918,19.0953203 17.3871006,18.7902954 L17.2928932,18.7071068 L9.999,11.414 L10,17 C10,17.5522847 9.55228475,18 9,18 C8.48716416,18 8.06449284,17.6139598 8.00672773,17.1166211 L8,17 L8,9 L8.00051708,8.96774538 C8.00109474,8.94973363 8.0021564,8.93173451 8.00370206,8.9137692 L8,9 C8,8.94937972 8.00376119,8.89963791 8.01101934,8.85103878 C8.01362808,8.83405099 8.01670217,8.81662474 8.02024007,8.79927424 C8.0246398,8.77725392 8.02983363,8.75556352 8.03572097,8.73416039 C8.04009773,8.71853672 8.04472872,8.70314866 8.04973809,8.68785748 C8.05612249,8.66820232 8.06331574,8.6484208 8.07110396,8.62894148 C8.07819642,8.61120435 8.08567905,8.5939015 8.09367336,8.57677845 C8.10337664,8.5561086 8.11379392,8.53570605 8.12487577,8.51572305 C8.13149883,8.50360556 8.13860692,8.49138689 8.14599545,8.47929125 C8.1617187,8.45372505 8.17849009,8.42886931 8.19631351,8.4048407 C8.20175344,8.39739696 8.20728448,8.39015759 8.21292769,8.38297765 C8.26026655,8.32273092 8.31457489,8.26782388 8.37455101,8.21968877 L8.38519363,8.21126487 L8.38519363,8.21126487 L8.29289322,8.29289322 C8.32828727,8.25749917 8.36567442,8.22531295 8.40469339,8.19633458 C8.42886931,8.17849009 8.45372505,8.1617187 8.47933981,8.14606743 C8.49138689,8.13860692 8.50360556,8.13149883 8.5159379,8.12467117 C8.53570605,8.11379392 8.5561086,8.10337664 8.57690085,8.09365378 C8.5939015,8.08567905 8.61120435,8.07819642 8.62866398,8.07122549 C8.6484208,8.06331574 8.66820232,8.05612249 8.68826359,8.04954668 C8.69460531,8.0475275 8.70137201,8.04539061 8.70815633,8.0433274 L8.72912705,8.03711974 C8.75280168,8.03047332 8.77683175,8.02467654 8.80118228,8.01976438 C8.80870645,8.01833482 8.81613141,8.01692406 8.82356849,8.01559786 L8.84601538,8.01178265 C8.85839634,8.00986911 8.8708523,8.00818267 8.88337887,8.00672773 L8.91880273,8.00328173 C8.92618647,8.00268382 8.93357559,8.0021676 8.94096861,8.0017331 L8.967,8.001 L9,8 Z"/>
</svg>

<svg xmlns="http://www.w3.org/2000/svg" viewBox="0 0 24 24">
  <path d="M19 2a3 3 0 0 1 3 2.82V16a1 1 0 0 1-2 .12V5a1 1 0 0 0-.88-1H5a1 1 0 0 0-1 .88V19a1 1 0 0 0 .88 1H15a1 1 0 0 1 .12 2H5a3 3 0 0 1-3-2.82V5a3 3 0 0 1 2.82-3H19zM9 8h8a1 1 0 0 1 .12 2H11.4l7.3 7.3a1 1 0 0 1-1.32 1.49l-.1-.08-7.3-7.3L10 17a1 1 0 0 1-2 .12V8.97a1 1 0 0 1 0-.06V9a1 1 0 0 1 .37-.78h.02l-.1.07a1 1 0 0 1 .42-.25h.02a1 1 0 0 1 .07-.02h.05A1 1 0 0 1 8.88 8H9z"/>
</svg>
